packages/assets/static/images/icons/lg-list.svg

<svg width="24" height="24" viewBox="0 0 24 24" xmlns="http://www.w3.org/2000/svg">
<path d="M6.875 9.375C6.875 9.07663 6.99353 8.79048 7.2045 8.5795C7.41548 8.36853 7.70163 8.25 8 8.25H17C17.2984 8.25 17.5845 8.36853 17.7955 8.5795C18.0065 8.79048 18.125 9.07663 18.125 9.375C18.125 9.67337 18.0065 9.95952 17.7955 10.1705C17.5845 10.3815 17.2984 10.5 17 10.5H8C7.70163 10.5 7.41548 10.3815 7.2045 10.1705C6.99353 9.95952 6.875 9.67337 6.875 9.375ZM8 14.25H17C17.2984 14.25 17.5845 14.1315 17.7955 13.9205C18.0065 13.7095 18.125 13.4234 18.125 13.125C18.125 12.8266 18.0065 12.5405 17.7955 12.3295C17.5845 12.1185 17.2984 12 17 12H8C7.70163 12 7.41548 12.1185 7.2045 12.3295C6.99353 12.5405 6.875 12.8266 6.875 13.125C6.875 13.4234 6.99353 13.7095 7.2045 13.9205C7.41548 14.1315 7.70163 14.25 8 14.25ZM22.625 5.25V19.5C22.625 19.6918 22.5759 19.8804 22.4825 20.0479C22.3891 20.2154 22.2544 20.3562 22.0912 20.457C21.9281 20.5578 21.7419 20.6152 21.5503 20.6237C21.3587 20.6323 21.1681 20.5918 20.9966 20.5059L18.5 19.2581L16.0034 20.5059C15.8471 20.5841 15.6748 20.6249 15.5 20.6249C15.3252 20.6249 15.1529 20.5841 14.9966 20.5059L12.5 19.2581L10.0034 20.5059C9.84714 20.5841 9.67477 20.6249 9.5 20.6249C9.32523 20.6249 9.15286 20.5841 8.99656 20.5059L6.5 19.2581L4.00344 20.5059C3.83193 20.5918 3.64133 20.6323 3.44974 20.6237C3.25814 20.6152 3.07192 20.5578 2.90876 20.457C2.7456 20.3562 2.61091 20.2154 2.51749 20.0479C2.42407 19.8804 2.37502 19.6918 2.375 19.5V5.25C2.375 4.75272 2.57254 4.27581 2.92417 3.92417C3.27581 3.57254 3.75272 3.375 4.25 3.375H20.75C21.2473 3.375 21.7242 3.57254 22.0758 3.92417C22.4275 4.27581 22.625 4.75272 22.625 5.25ZM20.375 5.625H4.625V17.6794L5.99656 16.9941C6.15286 16.9159 6.32523 16.8751 6.5 16.8751C6.67477 16.8751 6.84714 16.9159 7.00344 16.9941L9.5 18.2419L11.9966 16.9941C12.1529 16.9159 12.3252 16.8751 12.5 16.8751C12.6748 16.8751 12.8471 16.9159 13.0034 16.9941L15.5 18.2419L17.9966 16.9941C18.1529 16.9159 18.3252 16.8751 18.5 16.8751C18.6748 16.8751 18.8471 16.9159 19.0034 16.9941L20.375 17.6794V5.625Z"/>
</svg>

<svg viewBox="0 0 24 24" xmlns="http://www.w3.org/2000/svg" aria-hidden="true" fill="currentColor" height="24px" width="24px"><path d="M6.875 9.375A1.125 1.125 0 0 1 8 8.25h9a1.125 1.125 0 0 1 0 2.25H8a1.125 1.125 0 0 1-1.125-1.125M8 14.25h9A1.125 1.125 0 1 0 17 12H8a1.125 1.125 0 1 0 0 2.25m14.625-9V19.5a1.125 1.125 0 0 1-1.628 1.006L18.5 19.258l-2.497 1.248a1.13 1.13 0 0 1-1.006 0L12.5 19.258l-2.497 1.248a1.13 1.13 0 0 1-1.006 0L6.5 19.258l-2.497 1.248A1.124 1.124 0 0 1 2.375 19.5V5.25A1.875 1.875 0 0 1 4.25 3.375h16.5a1.875 1.875 0 0 1 1.875 1.875m-2.25.375H4.625v12.054l1.372-.685a1.13 1.13 0 0 1 1.006 0L9.5 18.242l2.497-1.248a1.13 1.13 0 0 1 1.006 0l2.497 1.248 2.497-1.248a1.13 1.13 0 0 1 1.006 0l1.372.685z"/></svg>
